X: 5
I: linebreak $
T: Jamaica
T: longways for as many as will
P: A BB = one progression
C: John Playford, The Dancing Master, 1670
K: F major
M: 2/2
L: 1/4
P: A
"F"FA AB/c/ | "Bb"d"F"c "Bb"d2 | "F"cA AG/F/ | "Csus4"G2 "F"F2 | "F"FA AB/c/ | "Bb"d"F"c "Bb"d2 | 
"F"cA AG/F/ | "Csus4"G2 "F"F2 |: 
P: B
"F"ff "C"ee | "Bb"dd "F"cA | "Bb"ff e/f/g | "Bb"d2 "F"c2 | 
"F"ff "C"ed/c/ | "Bb"dd "F"cA | "Bb"B/c/d "F"cB/A/ | "Csus4"G2 "F"F2 :| 

